X: 365
T: Bir Esmere Gönül Verdim
C: Tanburî Mustafa Çavuş
O: Turkey
F: http://compmusic.upf.edu/node/140
N: saba--sarki--aksak--bir_esmere--tanburi_mustafa_cavus
N: makam= saba
N: form= sarki
N: usul= aksak = 9/8
M: 9/8
L: 1/16
K: C _2/4B _3/4d  
Q: 1/4=180
%%MIDI tuningsystem comma53
A2B2 A4 B2c2 B6 | c2 d2c2 e2(3d2c2B2c6  | \
w:  ARANAĞME  |   | 
cdcd e2f2 g2_7/8a2 gfed c2 | 
w:   | 
dc BAB2 c2cB BAA6  | A2B2 A4 B2c2 B6 | \
w:   |  ARANAĞME  | 
c2 d2c2 e2(3d2c2B2c6  | 
w:   | 
cdcd e2f2 g2_7/8a2 gfed c2 | dc BAB2 c2cB BAA6  | 
w:   |   | 
c4 c2d2 c2B2 c2d2 dc | c3BB2 c2cB BAA4B2  | \
w:  *  Bir_ es me re  a man_ a  |  man  *  gö nül  ver *  *  *  dim    | 
G4 d2d2 c2B2 c2d2 dc | 
w:  *  Bir_ es me re  a man_ a  | 
c3BB2 c2cB BAA4c2  | BAB2 B2B2 BBA2 G6 | \
w:  man  *  gö nül  ver *  *  *  dim    |  *  *  *  Fi râ kıy *  *  le   | 
A2 B2c2 d2e2 f2ag fed2  | 
w:  art *  *  *  tı  *  der  | 
c2d4dc cBAB c2B2 dc | c6 cdcB ABc4Bd  | 
w:  dim  *  a *  man_ *  a *  man    |  *  SAZ  | 
c4 c2d2 c2B2 c2d2 dc | c3BB2 c2cB BAA4B2  | \
w:  *  Be nim_ o *  lur   |  *  *  di ye  sev *  *  *  dim    | 
G4 d2d2 c2B2 c2d2 dc | 
w:  *  Be nim_ o *  lur   | 
c3BB2 c2cB BAA4c2  | BAB2 B2B2 B4 B4 B^2/4A | \
w:  *  *  di ye  sev *  *  *  dim    |  *  *  *  Ya na ğı  gül   | 
B4B2 c2cB B^2/4AB4B^A  | 
w:  *  sa çı  sün *  *  *  bül    | 
B4 ^3/4F2G2 A2B2 c2d2 e2 | f3ag2 f2e2 d2c2 B2A2  | \
w:  *  Â şı kı  *  çok   |  şûh_ *  i  *  le *  ven  | 
A2ag gffe eddc c2B2 dc | 
w:  *  dim  *  *  *  a *  man_ *  *  *  *  *  a  | 
c16z2  | c4 g12 z2 | =b2 _7/8a2g2 f2e2 f2g2 a2b2  | \
w:  man    |  SAZ  |   | 
c'2=b_7/8a b2ag a2gf agfg ed | 
w:   | 
c3/2B/ cdef g_7/8agf egf6  | e3/2f/g_7/8a =bagf efga gfed cB | 
w:   |   | 
c3c'=b_7/8a gfed dccd cB_7/8AB  | \
w:   | 
c4 c2d2 c2B2 c2d2 dc | 
w:  *  Gel_ ağ lat ma  a man_ a  | 
c3BB2 c2cB BAA6  | dcBA B2c2 BAG2 ABc2 BA | 
w:  man  *  zül fü  ke *  *  *  men  |  dim  *  *  *  *  *  *  *  *  gel  *  *  a  | 
A6 cdcB ABc4Bd  | c4 c2d2 c2B2 c2d2 dc | \
w:  man   SAZ  |  *  Gel_ ağ lat ma  a man_ a  | 
c3BB2 c2cB BAA6  | 
w:  man  *  zül fü  ke *  *  *  men  | 
dcBA B2c2 BAG2 ABc2 BA | A16z2  | |


